Sources/FrostedUI/Resources/Icons.xcassets/thumbUpFilled20.imageset/thumb-up-filled-20.svg

<svg width="20" height="20" viewBox="0 0 20 20" fill="none" xmlns="http://www.w3.org/2000/svg" data-fui-icon="true">
  <path
    fill-rule="evenodd"
    clip-rule="evenodd"
    d="M5.27498 8.20829H3.12496C2.25052 8.20829 1.54163 8.91715 1.54163 9.79163V16.0416C1.54163 16.9161 2.25052 17.625 3.12496 17.625H14.5183C16.1244 17.625 17.4897 16.4517 17.7313 14.8639L18.4288 10.2805C18.7281 8.31351 17.2055 6.54163 15.2157 6.54163H11.7227L12.0674 4.33059C12.2963 2.86282 11.1565 1.54163 9.67579 1.54163C9.08402 1.54163 8.53919 1.87181 8.26723 2.39986L5.27498 8.20829ZM4.87496 16.125V9.70829H3.12496C3.07893 9.70829 3.04163 9.7456 3.04163 9.79163V16.0416C3.04163 16.0877 3.07893 16.125 3.12496 16.125H4.87496Z"
    fill="currentColor"
  />
</svg>

<svg xmlns="http://www.w3.org/2000/svg" width="20" height="20" fill="none" data-fui-icon="true" viewBox="0 0 20 20"><path fill="currentColor" fill-rule="evenodd" d="M5.275 8.208h-2.15c-.874 0-1.583.71-1.583 1.584v6.25c0 .874.709 1.583 1.583 1.583h11.393a3.25 3.25 0 0 0 3.213-2.761l.698-4.584a3.25 3.25 0 0 0-3.213-3.738h-3.493l.344-2.211a2.42 2.42 0 0 0-2.391-2.79c-.592 0-1.137.33-1.409.859zm-.4 7.917V9.708h-1.75a.083.083 0 0 0-.083.084v6.25c0 .046.037.083.083.083z" clip-rule="evenodd"/></svg>
